!!!OTL: Petrus und Pilatus " Wo gehn wir dann hin wandern ?" sprach Petrus
!!!ARE: Europa, Mitteleuropa, Lothringen, Metz ( St. Vinzent )
!!!SCT: D0019
!!!YEM: Copyright 1995, estate of Helmut Schaffrath.
**kern
*ICvox
*Ivox
*M2/2
*k[b-e-]
*g:
{4d
=1
4g
4ff#
4g
4a
=2
2b-
2ffn}
=3
{2b
2cc
=4
2dd
4r}
{4dd
=5
4ee-
4dd
4dd
8cc
8cc
=6
2dd
4b-}
{4dd
=7
4cc
4b-
4a
4g
=8
2a
2d}
=9
{4.g
8g
2f#
=10
2g
4r}
==
!!!AGN: Kinder - Spiel
!! Inzipit = Variante zum Lied, Verzierung
!!!ONB: ESAC (Essen Associative Code) Database: DVA
!!!AMT: simple duple
!!!AIN: vox
!!!EED: Helmut Schaffrath
!!!EEV: 1.0
*-
